<?xml version="1.0" encoding="UTF-8"?>
<map version="1.10" tiledversion="1.11.2" orientation="orthogonal" renderorder="right-down" width="40" height="30" tilewidth="16" tileheight="16" infinite="0" nextlayerid="2" nextobjectid="1">
 <tileset firstgid="1" source="cards.tsx"/>
 <layer id="1" name="Tile Layer 1" width="40" height="30">
  <data encoding="csv">
95,95,95,95,95,95,95,95,95,95,95,95,95,95,95,95,95,95,95,95,95,95,95,95,95,95,95,95,95,95,95,95,95,95,95,95,95,95,95,95,
95,89,90,90,90,90,90,90,90,90,90,90,90,90,90,90,90,90,90,90,90,90,90,90,90,90,90,90,90,90,90,90,90,90,90,90,90,90,91,95,
95,128,32,33,34,35,26,98,180,177,187,163,174,98,98,98,186,155,158,153,98,36,102,114,37,105,98,181,182,180,163,171,169,170,182,98,186,157,130,95,
95,128,70,71,72,73,64,98,168,174,183,181,170,98,98,98,98,98,98,98,98,74,140,152,75,143,98,98,98,98,98,98,98,98,98,98,98,98,130,95,
95,128,98,98,98,98,98,98,98,98,98,98,98,98,98,98,98,98,98,98,98,98,98,98,98,98,98,98,98,98,98,98,98,98,98,98,98,98,130,95,
95,128,104,105,106,107,108,98,181,182,180,163,171,169,170,182,98,186,158,153,98,33,31,113,98,98,98,182,170,180,167,167,98,177,168,98,186,156,130,95,
95,128,142,143,144,145,146,98,168,174,183,181,170,98,98,98,98,98,98,98,98,71,69,151,98,98,98,163,98,173,171,176,166,98,98,98,98,98,130,95,
95,128,98,98,98,98,98,98,98,98,98,98,98,98,98,98,98,98,98,98,98,98,98,98,98,98,98,98,98,98,98,98,98,98,98,98,98,98,130,95,
95,128,26,27,28,29,98,98,168,177,183,180,98,177,168,98,98,186,155,158,98,103,114,112,109,98,98,182,185,177,98,98,98,98,98,98,186,155,130,95,
95,128,64,65,66,67,98,98,163,98,173,171,176,166,98,98,98,98,98,98,98,141,152,150,147,98,98,178,163,171,180,98,98,98,98,98,98,98,130,95,
95,128,98,98,98,98,98,98,98,98,98,98,98,98,98,98,98,98,98,98,98,98,98,98,98,98,98,98,98,98,98,98,98,98,98,98,98,98,130,95,
95,128,33,31,113,114,98,98,168,183,174,174,98,98,98,98,98,98,186,162,98,27,28,98,98,98,98,178,163,171,180,98,98,98,98,98,186,154,130,95,
95,128,71,69,151,152,98,98,170,177,183,181,167,98,98,98,98,98,98,98,98,65,66,98,98,98,98,98,98,98,98,98,98,98,98,98,98,98,130,95,
95,128,98,98,98,98,98,98,98,98,98,98,98,98,98,98,98,98,98,98,98,98,98,98,98,98,98,98,98,100,101,100,101,98,98,100,101,98,130,95,
95,128,108,102,106,103,104,98,168,174,183,181,170,98,98,98,98,98,186,159,98,98,98,98,98,98,98,98,98,138,139,138,139,100,101,138,139,98,130,95,
95,128,146,140,144,141,142,98,98,98,98,98,98,98,98,98,98,98,98,98,98,98,98,98,98,98,98,98,98,98,98,98,98,138,139,98,98,98,130,95,
95,128,98,98,98,98,98,98,98,98,98,98,98,98,98,98,98,98,98,98,98,98,98,98,98,98,98,98,98,98,98,98,98,98,98,98,98,98,130,95,
95,128,164,167,182,189,98,98,98,98,98,98,98,98,98,185,171,176,189,98,98,98,98,98,98,98,98,98,165,180,167,166,171,182,189,98,98,98,130,95,
95,92,93,93,93,93,93,93,93,93,93,93,93,93,93,93,93,93,93,93,93,93,93,93,93,93,93,93,93,93,93,93,93,93,93,93,93,93,94,95,
95,95,95,95,95,95,95,95,95,95,95,95,95,95,95,95,95,95,95,95,95,95,95,95,95,95,95,95,95,95,95,95,95,95,95,95,95,95,95,95,
95,95,95,95,95,95,95,95,95,95,95,95,95,95,95,95,95,95,95,95,95,95,95,95,95,95,95,95,95,95,95,95,95,95,95,95,95,95,95,95,
95,95,95,95,95,95,95,95,95,95,95,95,95,95,95,95,95,95,95,95,95,95,95,95,95,95,95,95,95,95,95,95,95,95,95,95,95,95,95,95,
95,95,95,95,95,95,95,95,95,95,95,95,95,95,95,95,95,95,95,95,95,95,95,95,95,95,95,95,95,95,95,95,95,95,95,95,95,95,95,95,
95,95,95,95,95,95,95,95,95,95,95,95,95,95,95,95,95,95,95,95,95,95,95,95,95,95,95,95,95,95,95,95,95,95,95,95,95,95,95,95,
95,95,95,95,95,95,95,95,95,95,95,95,95,95,95,95,95,95,95,95,95,95,95,95,95,95,95,95,95,95,95,95,95,95,95,95,95,95,95,95,
95,95,95,95,95,95,95,95,95,95,95,95,95,95,95,95,95,95,95,95,95,95,95,95,95,95,95,95,95,95,95,95,95,95,95,95,95,95,95,95,
95,89,90,90,90,90,90,90,90,90,90,90,90,90,90,90,90,90,90,90,90,90,90,90,90,90,90,90,90,90,90,90,90,90,90,90,90,90,91,95,
95,128,98,98,98,98,98,98,98,98,98,98,98,98,98,98,98,98,98,98,98,98,98,98,98,98,98,98,98,98,98,98,98,98,98,98,98,98,130,95,
95,92,93,93,93,93,93,93,93,93,93,93,93,93,93,93,93,93,93,93,93,93,93,93,93,93,93,93,93,93,93,93,93,93,93,93,93,93,94,95,
95,95,95,95,95,95,95,95,95,95,95,95,95,95,95,95,95,95,95,95,95,95,95,95,95,95,95,95,95,95,95,95,95,95,95,95,95,95,95,95
</data>
 </layer>
</map>
